docs/graphics/year-in-review/donutShadow.svg

<svg  viewBox="0 0 184 183" fill="none" xmlns="http://www.w3.org/2000/svg">
<mask id="path-1-inside-1_201_6098" fill="white">
<path fill-rule="evenodd" clip-rule="evenodd" d="M87.5 176C39.172 176 0 136.604 0 88C0 39.3958 39.172 0 87.5 0C135.828 0 175 39.3958 175 88C175 136.604 135.828 176 87.5 176ZM122.287 82.3146C121.112 64.0226 105.984 49.5475 87.5 49.5475C68.3656 49.5475 52.8276 65.0587 52.6417 84.2583C52.3909 103.404 67.4617 119.265 86.5365 119.797C105.784 120.334 121.819 105.061 122.352 85.6831C122.383 84.5484 122.361 83.4247 122.287 82.3146Z"/>
</mask>
<path fill-rule="evenodd" clip-rule="evenodd" d="M87.5 176C39.172 176 0 136.604 0 88C0 39.3958 39.172 0 87.5 0C135.828 0 175 39.3958 175 88C175 136.604 135.828 176 87.5 176ZM122.287 82.3146C121.112 64.0226 105.984 49.5475 87.5 49.5475C68.3656 49.5475 52.8276 65.0587 52.6417 84.2583C52.3909 103.404 67.4617 119.265 86.5365 119.797C105.784 120.334 121.819 105.061 122.352 85.6831C122.383 84.5484 122.361 83.4247 122.287 82.3146Z" fill="#111111"/>
<path d="M122.287 82.3146L118.295 82.5708L118.296 82.5811L122.287 82.3146ZM52.6417 84.2583L56.6414 84.3107L56.6415 84.2971L52.6417 84.2583ZM86.5365 119.797L86.4249 123.796L86.5365 119.797ZM122.352 85.6831L118.354 85.5731L118.354 85.5731L122.352 85.6831ZM-4 88C-4 138.792 36.9414 180 87.5 180V172C41.4026 172 4 134.417 4 88H-4ZM87.5 -4C36.9414 -4 -4 37.2082 -4 88H4C4 41.5835 41.4026 4 87.5 4V-4ZM179 88C179 37.2082 138.059 -4 87.5 -4V4C133.597 4 171 41.5835 171 88H179ZM87.5 180C138.059 180 179 138.792 179 88H171C171 134.417 133.597 172 87.5 172V180ZM87.5 53.5475C103.841 53.5475 117.254 66.3509 118.295 82.5708L126.278 82.0583C124.971 61.6943 108.127 45.5475 87.5 45.5475V53.5475ZM56.6415 84.2971C56.8064 67.268 70.5829 53.5475 87.5 53.5475V45.5475C66.1483 45.5475 48.8488 62.8495 48.6419 84.2196L56.6415 84.2971ZM48.642 84.206C48.363 105.51 65.1369 123.202 86.4249 123.796L86.648 115.799C69.7866 115.329 56.4188 101.299 56.6413 84.3107L48.642 84.206ZM86.4249 123.796C107.906 124.395 125.757 107.354 126.351 85.7932L118.354 85.5731C117.88 102.768 103.661 116.274 86.648 115.799L86.4249 123.796ZM126.351 85.7932C126.385 84.5327 126.36 83.2833 126.278 82.0481L118.296 82.5811C118.361 83.5661 118.381 84.5641 118.354 85.5731L126.351 85.7932Z" fill="#111111" mask="url(#path-1-inside-1_201_6098)"/>
<mask id="path-3-inside-2_201_6098" fill="white">
<path fill-rule="evenodd" clip-rule="evenodd" d="M96.5 183C48.172 183 9 143.604 9 95C9 46.3958 48.172 7 96.5 7C144.828 7 184 46.3958 184 95C184 143.604 144.828 183 96.5 183ZM131.287 89.3146C130.112 71.0226 114.984 56.5475 96.5 56.5475C77.3656 56.5475 61.8276 72.0587 61.6417 91.2583C61.3909 110.404 76.4617 126.265 95.5365 126.797C114.784 127.334 130.819 112.061 131.352 92.6831C131.383 91.5484 131.361 90.4247 131.287 89.3146Z"/>
</mask>
<path fill-rule="evenodd" clip-rule="evenodd" d="M96.5 183C48.172 183 9 143.604 9 95C9 46.3958 48.172 7 96.5 7C144.828 7 184 46.3958 184 95C184 143.604 144.828 183 96.5 183ZM131.287 89.3146C130.112 71.0226 114.984 56.5475 96.5 56.5475C77.3656 56.5475 61.8276 72.0587 61.6417 91.2583C61.3909 110.404 76.4617 126.265 95.5365 126.797C114.784 127.334 130.819 112.061 131.352 92.6831C131.383 91.5484 131.361 90.4247 131.287 89.3146Z" fill="white"/>
<path d="M131.287 89.3146L127.295 89.5708L127.296 89.5811L131.287 89.3146ZM61.6417 91.2583L65.6414 91.3107L65.6415 91.2971L61.6417 91.2583ZM95.5365 126.797L95.4249 130.796L95.5365 126.797ZM131.352 92.6831L127.354 92.5731L127.354 92.5731L131.352 92.6831ZM5 95C5 145.792 45.9414 187 96.5 187V179C50.4026 179 13 141.417 13 95H5ZM96.5 3C45.9414 3 5 44.2082 5 95H13C13 48.5835 50.4026 11 96.5 11V3ZM188 95C188 44.2082 147.059 3 96.5 3V11C142.597 11 180 48.5835 180 95H188ZM96.5 187C147.059 187 188 145.792 188 95H180C180 141.417 142.597 179 96.5 179V187ZM96.5 60.5475C112.841 60.5475 126.254 73.3509 127.295 89.5708L135.278 89.0583C133.971 68.6943 117.127 52.5475 96.5 52.5475V60.5475ZM65.6415 91.2971C65.8064 74.268 79.5829 60.5475 96.5 60.5475V52.5475C75.1483 52.5475 57.8488 69.8495 57.6419 91.2196L65.6415 91.2971ZM57.642 91.206C57.363 112.51 74.1369 130.202 95.4249 130.796L95.648 122.799C78.7866 122.329 65.4188 108.299 65.6413 91.3107L57.642 91.206ZM95.4249 130.796C116.906 131.395 134.757 114.354 135.351 92.7932L127.354 92.5731C126.88 109.768 112.661 123.274 95.648 122.799L95.4249 130.796ZM135.351 92.7932C135.385 91.5327 135.36 90.2833 135.278 89.0481L127.296 89.5811C127.361 90.5661 127.381 91.5641 127.354 92.5731L135.351 92.7932Z" fill="#111111" mask="url(#path-3-inside-2_201_6098)"/>
</svg>

<svg xmlns="http://www.w3.org/2000/svg" fill="none" viewBox="0 0 184 183"><mask id="a" fill="#fff"><path fill-rule="evenodd" d="M87.5 176C39.172 176 0 136.604 0 88S39.172 0 87.5 0 175 39.396 175 88s-39.172 88-87.5 88Zm34.787-93.685c-1.175-18.292-16.303-32.767-34.787-32.767-19.134 0-34.672 15.51-34.858 34.71-.251 19.146 14.82 35.007 33.895 35.539 19.247.537 35.282-14.736 35.815-34.114a35.898 35.898 0 0 0-.065-3.368Z" clip-rule="evenodd"/></mask><path fill="#111" fill-rule="evenodd" d="M87.5 176C39.172 176 0 136.604 0 88S39.172 0 87.5 0 175 39.396 175 88s-39.172 88-87.5 88Zm34.787-93.685c-1.175-18.292-16.303-32.767-34.787-32.767-19.134 0-34.672 15.51-34.858 34.71-.251 19.146 14.82 35.007 33.895 35.539 19.247.537 35.282-14.736 35.815-34.114a35.898 35.898 0 0 0-.065-3.368Z" clip-rule="evenodd"/><path fill="#111" d="m122.287 82.315-3.992.256.001.01 3.991-.266Zm-69.645 1.943 4 .053v-.014l-4-.039Zm33.895 35.539-.112 3.999.112-3.999Zm35.815-34.114-3.998-.11 3.998.11ZM-4 88c0 50.792 40.941 92 91.5 92v-8C41.403 172 4 134.417 4 88h-8ZM87.5-4C36.941-4-4 37.208-4 88h8C4 41.584 41.403 4 87.5 4v-8ZM179 88c0-50.792-40.941-92-91.5-92v8C133.597 4 171 41.584 171 88h8Zm-91.5 92c50.559 0 91.5-41.208 91.5-92h-8c0 46.417-37.403 84-83.5 84v8Zm0-126.453c16.341 0 29.754 12.804 30.795 29.024l7.983-.513c-1.307-20.364-18.151-36.51-38.778-36.51v8Zm-30.858 30.75c.164-17.029 13.94-30.75 30.858-30.75v-8c-21.352 0-38.651 17.303-38.858 38.673l8 .077Zm-8-.091c-.279 21.304 16.495 38.996 37.783 39.59l.223-7.997c-16.861-.47-30.23-14.5-30.007-31.488l-7.999-.105Zm37.783 39.59c21.481.599 39.332-16.442 39.926-38.003l-7.997-.22c-.474 17.195-14.693 30.701-31.706 30.226l-.223 7.997Zm39.926-38.003c.034-1.26.009-2.51-.073-3.745l-7.982.533c.065.985.085 1.983.058 2.992l7.997.22Z" mask="url(#a)"/><mask id="b" fill="#fff"><path fill-rule="evenodd" d="M96.5 183C48.172 183 9 143.604 9 95S48.172 7 96.5 7 184 46.396 184 95s-39.172 88-87.5 88Zm34.787-93.685c-1.175-18.292-16.303-32.767-34.787-32.767-19.134 0-34.672 15.51-34.858 34.71-.251 19.146 14.82 35.007 33.895 35.539 19.247.537 35.282-14.736 35.815-34.114a35.898 35.898 0 0 0-.065-3.368Z" clip-rule="evenodd"/></mask><path fill="#fff" fill-rule="evenodd" d="M96.5 183C48.172 183 9 143.604 9 95S48.172 7 96.5 7 184 46.396 184 95s-39.172 88-87.5 88Zm34.787-93.685c-1.175-18.292-16.303-32.767-34.787-32.767-19.134 0-34.672 15.51-34.858 34.71-.251 19.146 14.82 35.007 33.895 35.539 19.247.537 35.282-14.736 35.815-34.114a35.898 35.898 0 0 0-.065-3.368Z" clip-rule="evenodd"/><path fill="#111" d="m131.287 89.315-3.992.256.001.01 3.991-.266Zm-69.645 1.943 4 .053v-.014l-4-.039Zm33.895 35.539-.112 3.999.112-3.999Zm35.815-34.114-3.998-.11 3.998.11ZM5 95c0 50.792 40.941 92 91.5 92v-8C50.403 179 13 141.417 13 95H5ZM96.5 3C45.941 3 5 44.208 5 95h8c0-46.416 37.403-84 83.5-84V3ZM188 95c0-50.792-40.941-92-91.5-92v8c46.097 0 83.5 37.584 83.5 84h8Zm-91.5 92c50.559 0 91.5-41.208 91.5-92h-8c0 46.417-37.403 84-83.5 84v8Zm0-126.453c16.341 0 29.754 12.804 30.795 29.024l7.983-.513c-1.307-20.364-18.151-36.51-38.778-36.51v8Zm-30.859 30.75c.165-17.029 13.942-30.75 30.859-30.75v-8c-21.352 0-38.651 17.303-38.858 38.673l8 .077Zm-7.999-.091c-.279 21.304 16.495 38.996 37.783 39.59l.223-7.997c-16.861-.47-30.23-14.5-30.007-31.488l-7.999-.105Zm37.783 39.59c21.481.599 39.332-16.442 39.926-38.003l-7.997-.22c-.474 17.195-14.693 30.701-31.706 30.226l-.223 7.997Zm39.926-38.003c.034-1.26.009-2.51-.073-3.745l-7.982.533c.065.985.085 1.983.058 2.992l7.997.22Z" mask="url(#b)"/></svg>
